symbolic/48x48/apps/clockify.svg

<svg xmlns="http://www.w3.org/2000/svg" width="48" height="48" version="1.1">
 <circle style="opacity:0.2" cx="24" cy="25" r="20"/>
 <circle style="fill:#b2bfd9" cx="24" cy="24" r="20"/>
 <path style="opacity:0.1" d="m 33.439453,13.439844 -7,7 2.121094,2.121094 7,-7 z M 24,22.000391 a 3,3 0 0 0 -3,3 3,3 0 0 0 3,3 3,3 0 0 0 3,-3 3,3 0 0 0 -3,-3 z m 4.521484,5.900391 -2.042968,2.199218 7,6.5 2.042968,-2.199218 z"/>
 <path style="opacity:0.2;fill:#f4f4f7" d="M 24,4 A 20,20 0 0 0 4,24 20,20 0 0 0 4.0215,24.582 20,20 0 0 1 24,5 20,20 0 0 1 43.979,24.418 20,20 0 0 0 44,24 20,20 0 0 0 24,4 Z"/>
 <path style="fill:#039cf4" d="M 24,9 C 15.715729,9 9,15.715729 9,24 c 0,8.284271 6.715729,15 15,15 2.583559,-0.0028 5.122591,-0.672906 7.371094,-1.945312 L 28.234375,34.140625 C 26.893608,34.704196 25.454391,34.996288 24,35 17.924868,35 13,30.075132 13,24 c 0,-6.075132 4.924868,-11 11,-11 1.519259,0.0025 3.021523,0.319738 4.412109,0.931641 l 2.96875,-2.96875 C 29.131144,9.6827218 26.588437,9.0065057 24,9 Z"/>
 <circle style="fill:#3f3f3f" cx="24" cy="24" r="3"/>
 <path style="fill:none;stroke:#3f3f3f;stroke-width:3" d="m 27.5,20.5 7,-7 v 0 0"/>
 <path style="fill:none;stroke:#3f3f3f;stroke-width:3" d="m 27.5,28 7,6.5"/>
 <path style="opacity:0.2" d="M 24 9 C 15.715729 9 9 15.715729 9 24 C 9 24.16885 9.0198544 24.332497 9.0253906 24.5 C 9.2914759 16.44931 15.884579 10 24 10 C 26.341313 10.005885 28.643067 10.564093 30.726562 11.617188 L 31.380859 10.962891 C 29.131144 9.6827214 26.588437 9.0065057 24 9 z M 13.025391 24.5 C 13.017871 24.666901 13 24.831243 13 25 C 13 31.075132 17.924868 36 24 36 C 25.454391 35.996288 26.893608 35.704196 28.234375 35.140625 L 30.683594 37.416016 C 30.915129 37.300397 31.145175 37.182533 31.371094 37.054688 L 28.234375 34.140625 C 26.893608 34.704196 25.454391 34.996288 24 35 C 18.093625 35 13.288568 30.341413 13.025391 24.5 z"/>
</svg>

<svg xmlns="http://www.w3.org/2000/svg" width="48" height="48"><circle style="opacity:.2" cx="24" cy="25" r="20"/><circle style="fill:#b2bfd9" cx="24" cy="24" r="20"/><path style="opacity:.1" d="m33.44 13.44-7 7 2.12 2.12 7-7zM24 22a3 3 0 0 0-3 3 3 3 0 0 0 3 3 3 3 0 0 0 3-3 3 3 0 0 0-3-3zm4.521 5.9-2.042 2.2 7 6.5 2.042-2.2z"/><path style="opacity:.2;fill:#f4f4f7" d="M24 4A20 20 0 0 0 4 24a20 20 0 0 0 .021.582A20 20 0 0 1 24 5a20 20 0 0 1 19.979 19.418A20 20 0 0 0 44 24 20 20 0 0 0 24 4z"/><path style="fill:#039cf4" d="M24 9C15.716 9 9 15.716 9 24c0 8.284 6.716 15 15 15a15 15 0 0 0 7.371-1.945l-3.137-2.914A11 11 0 0 1 24 35c-6.075 0-11-4.925-11-11s4.925-11 11-11a11 11 0 0 1 4.412.932l2.969-2.97A15 15 0 0 0 24 9z"/><circle style="fill:#3f3f3f" cx="24" cy="24" r="3"/><path style="fill:none;stroke:#3f3f3f;stroke-width:3" d="m27.5 20.5 7-7M27.5 28l7 6.5"/><path style="opacity:.2" d="M24 9C15.716 9 9 15.716 9 24c0 .169.02.332.025.5C9.291 16.45 15.885 10 24 10c2.341.006 4.643.564 6.727 1.617l.654-.654A15 15 0 0 0 24 9zM13.025 24.5c-.007.167-.025.331-.025.5 0 6.075 4.925 11 11 11a11 11 0 0 0 4.234-.86l2.45 2.276c.231-.116.461-.233.687-.361l-3.137-2.914A11 11 0 0 1 24 35c-5.906 0-10.711-4.659-10.975-10.5z"/></svg>
